X: 6
M: C
L: 1/8
K: Dm
|: Ac |\
d2e2 f2ed | c2A2 A3c | GAcd egde | c2G2 G2AG |
|: FG |\
dcde f2ed | cAFA c2BA | GFED C2EG | F2D2 D2 :|




